incomeartour/img/icons/christmas-tree.svg

<svg width="24" height="34" viewBox="0 0 24 34" fill="none" xmlns="http://www.w3.org/2000/svg">
<g opacity="0.9">
<path fill-rule="evenodd" clip-rule="evenodd" d="M12.139 0.240234L13.0224 2.63971H15.1255L13.2327 4.07098L14.0319 6.21788L12.0549 5.08128L9.99386 6.34417L10.9192 4.02888L8.8161 2.42923L11.3819 2.51342L12.139 0.240234Z" fill="black"/>
<path fill-rule="evenodd" clip-rule="evenodd" d="M10.6251 27.6444V33.3273H13.5694V27.5602C17.4813 28.8231 23.7065 26.592 23.2859 26.592C22.7811 26.592 17.5233 23.7715 16.0091 21.1195C18.1963 22.677 19.2058 21.1195 20.8042 21.1195C18.7431 19.4356 15.6726 19.5198 14.5369 16.0258C16.1353 17.3308 17.1868 16.0258 18.5328 16.0258C16.6821 14.5104 14.0742 14.2157 13.0647 11.4374C14.9996 12.7845 14.7893 11.4374 16.3456 11.4374C14.7893 9.45886 13.0647 9.0379 12.1393 6.34375C11.0877 9.20628 9.48937 9.45886 7.84893 11.5637C9.40524 11.5637 9.23699 12.9107 11.1719 11.5637C10.1203 14.342 7.51243 14.6367 5.70374 16.1521C7.00768 16.1521 8.05924 17.4571 9.65762 16.1521C8.52193 19.6461 5.49342 19.5198 3.39029 21.2458C4.98867 21.2458 5.99817 22.8033 8.18543 21.2458C6.67118 23.8557 1.41335 26.7183 0.950663 26.7183C0.530037 26.7183 6.71324 28.9493 10.6251 27.6444Z" fill="black"/>
</g>
</svg>

<svg width="24" height="34" fill="none" xmlns="http://www.w3.org/2000/svg"><path d="M12.139.24l.883 2.4h2.104l-1.894 1.43.799 2.147-1.977-1.137-2.061 1.263.925-2.315-2.103-1.6 2.566.084.757-2.273zm-1.514 27.404v5.683h2.944V27.56c3.912 1.263 10.137-.968 9.717-.968-.505 0-5.763-2.82-7.277-5.473 2.187 1.558 3.197 0 4.795 0-2.06-1.683-5.131-1.6-6.267-5.093 1.598 1.305 2.65 0 3.996 0-1.85-1.516-4.459-1.81-5.468-4.589 1.935 1.348 1.724 0 3.28 0-1.556-1.978-3.28-2.4-4.206-5.093-1.051 2.862-2.65 3.115-4.29 5.22 1.556 0 1.388 1.347 3.323 0-1.052 2.778-3.66 3.073-5.468 4.588 1.304 0 2.355 1.305 3.954 0-1.136 3.494-4.165 3.368-6.268 5.094 1.599 0 2.608 1.557 4.795 0-1.514 2.61-6.772 5.472-7.234 5.472-.421 0 5.762 2.231 9.674.926z" opacity=".9" fill-rule="evenodd" clip-rule="evenodd" fill="#000"/></svg>
